img/clear.svg

<svg viewBox="0 0 12 12" xmlns="http://www.w3.org/2000/svg"><g fill="none" fill-rule="evenodd"><path d="m6 0c-3.313 0-6 2.687-6 6 0 3.313 2.687 6 6 6 3.313 0 6-2.687 6-6 0-3.313-2.687-6-6-6m3 8.151l-.85.849-2.15-2.151-2.151 2.151-.849-.849 2.151-2.151-2.151-2.151.848-.849 2.152 2.151 2.151-2.151.849.849-2.152 2.151 2.152 2.151" fill="#a7a9ac"/></g></svg>

<?xml version="1.0" encoding="UTF-8" standalone="no"?>
<svg width="12px" height="12px" viewBox="0 0 12 12" version="1.1" xmlns="http://www.w3.org/2000/svg" xmlns:xlink="http://www.w3.org/1999/xlink" xmlns:sketch="http://www.bohemiancoding.com/sketch/ns">
    <!-- Generator: Sketch 3.0.4 (8053) - http://www.bohemiancoding.com/sketch -->
    <title>clear</title>
    <desc>Created with Sketch.</desc>
    <defs></defs>
    <g id="Page-1" stroke="none" stroke-width="1" fill="none" fill-rule="evenodd" sketch:type="MSPage">
        <g id="clear" sketch:type="MSArtboardGroup" fill="#A7A9AC">
            <g id="Imported-EPS" sketch:type="MSLayerGroup">
                <path d="M6,0 C2.687,0 0,2.687 0,6 C0,9.313 2.687,12 6,12 C9.313,12 12,9.313 12,6 C12,2.687 9.313,0 6,0 L6,0 Z M9,8.151 L8.15,9 L6,6.849 L3.849,9 L3,8.151 L5.151,6 L3,3.849 L3.848,3 L6,5.151 L8.151,3 L9,3.849 L6.848,6 L9,8.151 L9,8.151 Z" id="Page-1" sketch:type="MSShapeGroup"></path>
            </g>
        </g>
    </g>
</svg>
